icons/svg/poi_colored/nuclear_explosion_site.svg

<?xml version="1.0" encoding="UTF-8" standalone="no"?>
<!-- Created with Inkscape (http://www.inkscape.org/) -->

<svg
   xmlns:dc="http://purl.org/dc/elements/1.1/"
   xmlns:cc="http://creativecommons.org/ns#"
   xmlns:rdf="http://www.w3.org/1999/02/22-rdf-syntax-ns#"
   xmlns:svg="http://www.w3.org/2000/svg"
   xmlns="http://www.w3.org/2000/svg"
   xmlns:sodipodi="http://sodipodi.sourceforge.net/DTD/sodipodi-0.dtd"
   xmlns:inkscape="http://www.inkscape.org/namespaces/inkscape"
   version="1.0"
   width="580"
   height="580"
   id="svg2"
   sodipodi:version="0.32"
   inkscape:version="0.48.4 r9939"
   sodipodi:docname="crane.svg"
   inkscape:output_extension="org.inkscape.output.svg.inkscape">
  <metadata
     id="metadata2975">
    <rdf:RDF>
      <cc:Work
         rdf:about="">
        <dc:format>image/svg+xml</dc:format>
        <dc:type
           rdf:resource="http://purl.org/dc/dcmitype/StillImage" />
        <cc:license
           rdf:resource="http://web.resource.org/cc/PublicDomain" />
        <dc:language>en</dc:language>
        <dc:title></dc:title>
      </cc:Work>
    </rdf:RDF>
  </metadata>
  <sodipodi:namedview
     inkscape:window-height="1021"
     inkscape:window-width="1680"
     inkscape:pageshadow="2"
     inkscape:pageopacity="0.0"
     guidetolerance="10.0"
     gridtolerance="10.0"
     objecttolerance="10.0"
     borderopacity="1.0"
     bordercolor="#666666"
     pagecolor="#ffffff"
     id="base"
     inkscape:zoom="0.65172414"
     inkscape:cx="-312.33729"
     inkscape:cy="268.56209"
     inkscape:window-x="0"
     inkscape:window-y="0"
     inkscape:current-layer="svg2"
     showgrid="false"
     inkscape:window-maximized="1" />
  <defs
     id="defs4">
    <inkscape:perspective
       sodipodi:type="inkscape:persp3d"
       inkscape:vp_x="0 : 290 : 1"
       inkscape:vp_y="0 : 1000 : 0"
       inkscape:vp_z="580 : 290 : 1"
       inkscape:persp3d-origin="290 : 193.33333 : 1"
       id="perspective2441" />
    <inkscape:perspective
       id="perspective3452"
       inkscape:persp3d-origin="30 : 20 : 1"
       inkscape:vp_z="60 : 30 : 1"
       inkscape:vp_y="0 : 1000 : 0"
       inkscape:vp_x="0 : 30 : 1"
       sodipodi:type="inkscape:persp3d" />
    <symbol
       viewBox="244.5 110 489 219.9"
       id="symbol-university">
      <path
         id="path4460"
         d="M79,43l57,119c0,0,21-96,104-96s124,106,124,106l43-133l82-17L0,17L79,43z" />
      <path
         id="path4462"
         d="M94,176l-21,39"
         stroke-width="20"
         stroke="#000000"
         fill="none" />
      <path
         id="path4464"
         d="M300,19c0,10.5-22.6,19-50.5,19S199,29.5,199,19s22.6-19,50.5-19S300,8.5,300,19z" />
      <path
         id="path4466"
         d="M112,216l-16-38L64,88c0,0-9-8-4-35s16-24,16-24"
         stroke-width="20"
         stroke="#000000"
         ill="none" />
    </symbol>
    <inkscape:perspective
       id="perspective4471"
       inkscape:persp3d-origin="372.04724 : 350.78739 : 1"
       inkscape:vp_z="744.09448 : 526.18109 : 1"
       inkscape:vp_y="0 : 1000 : 0"
       inkscape:vp_x="0 : 526.18109 : 1"
       sodipodi:type="inkscape:persp3d" />
    <inkscape:perspective
       id="perspective4668"
       inkscape:persp3d-origin="6 : 4 : 1"
       inkscape:vp_z="12 : 6 : 1"
       inkscape:vp_y="0 : 1000 : 0"
       inkscape:vp_x="0 : 6 : 1"
       sodipodi:type="inkscape:persp3d" />
  </defs>
  <g
     id="g1327">
    <path
       d="M 66.275,1.768 C 24.94,1.768 1.704,23.139 1.704,66.804 L 1.704,516.927 C 1.704,557.771 22.599,579.156 63.896,579.156 L 515.92,579.156 C 557.227,579.156 578.149,558.841 578.149,516.927 L 578.149,66.804 C 578.149,24.203 557.227,1.768 514.628,1.768 C 514.624,1.768 66.133,1.625 66.275,1.768 z "
       style="fill:#111;stroke:#eee;stroke-width:3.40799999"
       id="path1329" />
  </g>
  <path
     style="color:#000000;fill:#ffffff;fill-opacity:1;stroke:none;stroke-width:13.5;marker:none;visibility:visible;display:inline;overflow:visible;enable-background:accumulate"
     d="m 506.74876,175.73524 c 11.2652,11.39465 6.9137,16.54265 -0.01,20.66214 20.1795,26.16049 20.875,70.11314 -28.15842,66.63643 -7.97959,19.07486 -22.63707,23.36297 -40.90729,19.65145 -26.21268,34.50117 -59.62329,16.70548 -71.89625,-0.61614 -3.67386,4.46472 -11.43931,6.53321 -15.69,1.81022 -3.7302,4.14467 -11.30521,-0.32893 -11.17984,-8.21541 0,0 -1.2584,29.59878 1.30026,43.86686 l 4.05555,51.37014 -0.88948,55.44383 c 7.13474,19.15227 2.87362,26.90868 0.11072,36.16332 -5.07462,-7.36537 17.62773,-10.45856 18.41571,-6.51868 -1.04742,-6.28452 16.92228,-15.17315 25.15445,-0.97917 13.50034,-44.23636 57.85469,-11.25719 46.36673,7.81949 11.96871,-13.05261 35.42174,-9.91885 26.90786,11.29388 45.2785,-11.5708 31.4733,32.53437 23.6395,34.60147 9.2619,14.69064 -4.44936,27.48747 -18.97131,25.33607 -1.36326,10.22444 -21.68138,9.16824 -21.32403,1.68299 -15.1844,2.03858 -4.34511,7.54698 -61.70434,3.96225 -7.45428,10.34995 -17.13328,5.1268 -26.59792,1.40423 -2.75713,4.94126 -4.03312,0.99567 -5.84739,0.27974 -17.46522,11.604 -28.40968,2.01552 -42.17754,1.60309 -9.96095,2.12081 -20.00291,4.80871 -28.95566,-0.12785 -13.63905,5.12888 -17.79325,1.82677 -22.3196,-1.14454 -26.59808,1.78255 -47.91403,1.10012 -58.92504,-4.39129 -3.06046,6.88603 -45.31998,-1.47388 -45.31998,-1.47388 -15.47219,5.16938 -16.12279,-3.34271 -18.57706,-10.18987 -23.18287,4.50778 -31.72259,-30.24112 -8.19765,-40.81668 -16.01753,-26.28145 -0.60864,-40.45599 22.86649,-38.88236 4.31446,-17.60117 22.84846,-30.58866 45.22178,-3.97531 13.70084,-7.08518 32.3339,-5.56831 28.4675,20.09149 6.62865,-11.20093 12.52453,-4.82911 14.28307,-0.2016 4.31084,-8.02911 26.43972,0.88102 20.63859,6.71921 -3.80931,-10.3309 -6.12368,-22.3436 1.69662,-45.75781 2.64183,-36.93274 6.64489,-68.42059 6.59556,-116.11799 1.30084,-9.05154 1.5424,-27.15462 1.5424,-27.15462 -3.94324,5.02227 -6.44776,3.57033 -8.95323,2.12266 -7.95176,7.66358 -16.41573,10.46107 -25.83747,4.15984 -18.56718,26.72059 -41.1032,11.9449 -46.95058,0.83039 -13.98619,21.84631 -53.1087,14.16893 -50.55053,-13.10609 -17.95954,4.37631 -37.562032,7.79368 -32.64857,-25.23038 -4.024072,-4.46743 -11.689982,2.22035 -11.144482,-16.61943 -22.01722,-5.43996 -32.94756,-19.48005 -13.99894,-49.19693 -3.11678,-1.65903 -8.41335,-2.72357 -0.59886,-7.36385 -40.57424,-37.17133 12.13447,-63.02199 12.13447,-63.02199 -0.0655,-8.59966 -7.14582,-19.780316 14.433512,-20.416056 0.40778,-6.69367 2.17427,-14.17265 18.93048,-16.61332 -2.02396,-3.8932 -1.40131,-21.951866 20.08341,-11.86481 4.17812,-4.719279 8.11133,-9.683467 18.73502,-7.957169 3.42552,-6.395872 8.25737,-5.805591 12.71736,-3.974579 16.35152,-18.225195 25.85258,-11.175359 38.01051,-8.658738 8.50808,-7.006704 17.01615,-3.600742 25.52423,-3.071776 9.03901,-12.537777 17.42593,-4.148415 20.46894,-1.292985 4.2227,-1.471037 6.58565,-6.351622 14.87345,-0.369988 5.09087,-0.499409 6.58787,-3.394728 17.65503,0.09006 1.92284,-1.949733 3.85085,-3.858156 6.49312,-0.05246 4.76954,-7.979536 10.88497,0.756989 9.52203,0.0911 8.46782,-6.894204 23.27906,-3.99935 29.21438,2.161762 7.64149,-4.390312 8.67734,-0.287659 11.51964,1.492407 5.16542,-1.693034 8.9134,0.157539 12.63879,2.064568 13.1288,-8.187813 15.63121,1.689221 22.11852,4.791933 24.0202,-5.06386 31.47123,5.200689 36.32512,11.918869 2.8848,0.500707 6.80597,-1.416774 7.67479,3.787916 11.90389,-0.0888 12.2667,5.06841 16.84032,8.31159 5.59833,-0.19806 5.80387,2.56163 6.97057,4.79415 4.95534,0.5694 11.24806,-3.40828 12.78268,8.79155 8.28153,-2.62475 18.15463,1.06638 14.28792,13.373435 3.49114,-1.831965 5.41928,2.868251 4.78358,3.949051 11.2547,-0.008 15.738,18.37993 12.759,19.86941 3.2779,-2.18523 15.2983,14.71462 9.2732,25.34382 6.7471,6.27886 13.8214,15.52325 4.2976,27.03094 z"
     id="path4190"
     inkscape:connector-curvature="0"
     sodipodi:nodetypes="ccccccccccccccccccccccccccccccccccccccccccccccccccccccccccccccccccccccc" />
</svg>

<svg width="580" height="580" viewBox="0 0 580 580" fill="none" xmlns="http://www.w3.org/2000/svg">
<g clip-path="url(#clip0)">
<path d="M66.2751 1.7679C24.9401 1.7679 1.7041 23.1389 1.7041 66.8039V516.927C1.7041 557.771 22.5991 579.156 63.8961 579.156H515.92C557.227 579.156 578.149 558.841 578.149 516.927V66.8039C578.149 24.2029 557.227 1.7679 514.628 1.7679C514.624 1.7679 66.1331 1.6249 66.2751 1.7679Z" fill="#111111" stroke="#EEEEEE" stroke-width="3.408"/>
<path d="M506.749 175.735C518.014 187.13 513.663 192.278 506.739 196.397C526.918 222.558 527.614 266.511 478.581 263.034C470.601 282.109 455.943 286.397 437.673 282.685C411.461 317.187 378.05 299.391 365.777 282.069C362.103 286.534 354.338 288.602 350.087 283.879C346.357 288.024 338.782 283.55 338.907 275.664C338.907 275.664 337.649 305.263 340.207 319.531L344.263 370.901L343.373 426.345C350.508 445.497 346.247 453.254 343.484 462.508C338.41 455.143 361.112 452.05 361.9 455.989C360.852 449.705 378.822 440.816 387.054 455.01C400.555 410.774 444.909 443.753 433.421 462.83C445.39 449.777 468.843 452.911 460.329 474.124C505.607 462.553 491.802 506.658 483.968 508.725C493.23 523.416 479.519 536.213 464.997 534.061C463.634 544.286 443.316 543.229 443.673 535.744C428.489 537.783 439.328 543.291 381.969 539.706C374.514 550.056 364.835 544.833 355.371 541.111C352.614 546.052 351.338 542.106 349.523 541.39C332.058 552.994 321.114 543.406 307.346 542.994C297.385 545.114 287.343 547.802 278.39 542.866C264.751 547.995 260.597 544.692 256.071 541.721C229.473 543.504 208.157 542.821 197.146 537.33C194.085 544.216 151.826 535.856 151.826 535.856C136.353 541.025 135.703 532.513 133.249 525.666C110.066 530.174 101.526 495.425 125.051 484.849C109.033 458.568 124.442 444.393 147.917 445.967C152.232 428.366 170.766 415.378 193.139 441.992C206.84 434.907 225.473 436.423 221.607 462.083C228.235 450.882 234.131 457.254 235.89 461.882C240.201 453.853 262.329 462.763 256.528 468.601C252.719 458.27 250.405 446.257 258.225 422.843C260.867 385.91 264.87 354.422 264.82 306.725C266.121 297.673 266.363 279.57 266.363 279.57C262.42 284.593 259.915 283.141 257.41 281.693C249.458 289.357 240.994 292.154 231.572 285.853C213.005 312.573 190.469 297.798 184.622 286.683C170.635 308.53 131.513 300.852 134.071 273.577C116.112 277.954 96.509 281.371 101.423 248.347C97.3984 243.879 89.7325 250.567 90.278 231.727C68.2608 226.287 57.3305 212.247 76.2791 182.53C73.1623 180.871 67.8657 179.807 75.6802 175.167C35.106 137.995 87.8147 112.145 87.8147 112.145C87.7492 103.545 80.6689 92.3643 102.248 91.7286C102.656 85.0349 104.422 77.5559 121.179 75.1152C119.155 71.222 119.777 53.1634 141.262 63.2504C145.44 58.5311 149.373 53.567 159.997 55.2933C163.423 48.8974 168.254 49.4877 172.714 51.3187C189.066 33.0935 198.567 40.1433 210.725 42.6599C219.233 35.6532 227.741 39.0592 236.249 39.5882C245.288 27.0504 253.675 35.4398 256.718 38.2952C260.941 36.8241 263.304 31.9436 271.592 37.9252C276.682 37.4258 278.179 34.5305 289.247 38.0153C291.169 36.0655 293.097 34.1571 295.74 37.9628C300.509 29.9833 306.625 38.7198 305.262 38.0539C313.73 31.1597 328.541 34.0545 334.476 40.2157C342.118 35.8253 343.154 39.928 345.996 41.7081C351.161 40.015 354.909 41.8656 358.635 43.7726C371.763 35.5848 374.266 45.4619 380.753 48.5646C404.773 43.5007 412.224 53.7653 417.078 60.4834C419.963 60.9841 423.884 59.0667 424.753 64.2713C436.657 64.1825 437.02 69.3398 441.593 72.5829C447.192 72.3849 447.397 75.1446 448.564 77.3771C453.519 77.9465 459.812 73.9688 461.347 86.1686C469.628 83.5439 479.501 87.235 475.635 99.5421C479.126 97.7101 481.054 102.41 480.418 103.491C491.673 103.483 496.156 121.871 493.177 123.361C496.455 121.175 508.475 138.075 502.45 148.704C509.197 154.983 516.272 164.228 506.748 175.735H506.749Z" fill="white"/>
</g>
<defs>
<clipPath id="clip0">
<path d="M0 0H580V580H0V0Z" fill="white"/>
</clipPath>
</defs>
</svg>
